X:1
T:A Message of Hope
T:A Message of Hope
T:Ella Southworth Clark
T:Ella Southworth Clark, 1909
T:Public Domain Courtesy of the Cyber Hymnal™
T:Public Domain Courtesy of the Cyber Hymnal™
C:Ella Southworth Clark
Z:Public Domain
Z:Courtesy of the Cyber Hymnal™
%%score ( 1 2 ) ( 3 4 )
L:1/8
Q:1/4=90
M:4/4
K:Eb
V:1 treble 
V:2 treble 
V:3 bass 
V:4 bass 
V:1
 [EG][FA] | [GB][GB] [GB]>[FA] [EG]2 [GB][GB] | [Ge][Ge] [Ge]>[Bd] [Ac]2 [Ac][Ac] | %3
w: 1.~There’s a|mess- age full of hope For the|pen- i- tents who mourn, With a|
w: 2.~There’s a|mess- age full of hope, Tho’ their|ma- ny sins ap- pear Like a|
w: 3.~There’s a|mess- age full of hope, When at|last we bid fare- well To our|
 [GB][GB] [EG]>[FG] [EG][EG][EF]E | ([DF]3 [EG] [FA]2) [EG][FA] | %5
w: heart of sor- row weep- ing o’er their|sin; * * For our|
w: mount- ain reach- ing up- ward to the|sky, * * And the|
w: friends and all those earth- ly scenes for|aye; * * For the|
 [GB][GB] [GB]>[FA] [EG]2 [GB][GB] | [Ge][Ge] [Ge]>[Bd] !fermata![ce]2 [Ac][Ac] | %7
w: bless- èd Lord has said, “He that|com- eth un- to Me, I will|
w: spir- it low may sink ’Neath the|bur- den, in des- pair, And they|
w: Mas- ter we have loved Is the|pi- lot who will guide All the|
 [GB][EG]E[EF] [EG][FA] [EG]>[DF] | E6 ||"^Refrain" [DF][EG] | [FA][FA] [FA]>[EG] [DF]2 [EG][FA] | %11
w: ne- ver cast a- way, but take him|in.”|||
w: fear that no de- liv- er- er is|nigh.|Christ can|save and keep, we know; He will|
w: faith- ful to the land of end- less|day.|||
 [GB][GB] [GB]>[FA] [EG]2 [EB][GB] | [Ge][Ge] [Ae]>[Ac] !fermata![GB]2"^riten." E[EF] | %13
w: ||
w: wash as white as snow, ’Tis a|mess- age full of hope; Tell it|
w: ||
 [EG][FA] [EG]>[DF] !fermata!E2 |] %14
w: |
w: out wher- e’er you go.|
w: |
V:2
 x2 | x8 | x8 | x7 E | x8 | x8 | x8 | x2 E x5 | E6 || x2 | x8 | x8 | x6 E x | x4 E2 |] %14
V:3
 [E,B,][E,B,] | [E,E][E,E] [E,E]>[E,B,] [E,B,]2 [E,B,][E,B,] | %2
 [E,B,][E,B,] [E,B,]>[E,E] [A,E]2 [A,C][A,D] | %3
 [E,E][E,E] [E,B,]>[D,=B,] [C,C][C,_B,][F,=A,][F,A,] | [B,,B,]6 [E,B,][E,B,] | %5
 [E,E][E,E] [E,E]>[E,B,] [E,B,]2 [E,B,][E,B,] | %6
 [E,B,][E,B,] [F,B,]>[G,E] !fermata![A,E]2 [A,E][A,E] | %7
 [E,E][E,B,][C,=A,][_C,A,] [B,,B,][B,,B,] [B,,B,]>[B,,_A,] | [E,G,]6 || [B,,B,][B,,B,] | %10
 [B,,B,][B,,B,] [D,B,]>[F,=A,] B,2 [G,B,][F,B,] | [E,B,E]E, [E,G,]>[E,B,] (EB,)[E,G,][E,B,] | %12
 [C,C][C,C] [A,C]>[A,D] [E,E]2 [G,B,][A,C] | B,B, [B,,B,]>[B,,A,] !fermata![E,G,]2 |] %14
V:4
 x2 | x8 | x8 | x8 | x8 | x8 | x8 | x8 | x6 || x2 | x4 (B,_A,) x2 | x E, x E,2 x3 | x8 | B,B, x4 |] %14

